!!!!SEGMENT: pl-kk--kk-i-3--006-006_anonim--officium-primum-de-annuntiatione-de-bmv-mittit-ad-virginem.krn
!!!cenid: 15xx:583
!!!COM: Anonim
!!!COM-rismID: pe30004985
!!!CDT:
!!!CNT:
!!!OPR: Officium Primum de Annuntiatione de BMV
!!!OTL: Mittit ad Virginem
!!!OMV: 006
!!!PDT:
!!!AGN:
!!!SMS-siglum: PL-Kk
!!!SMS-shelfmark: Kk.I.3
!!!SMS-shelfwork: 006-006 M
!!!SMS-variant:
!!!SMS-altvar:
!!!NIFC-rismSourceID: 1001145493
!!!NIFC-rismChildID: 1001145503
!!!NIFC-islandoraID: pl-kk:1170
!!!URL-pdf-islandora: https://repozytorium.nifc.pl/islandora/object/pl-kk%3A1170/datastream/PDF/view
!!!URL-scan: https://polish.musicsources.pl/pl/lokalizacje/galeria/rekopisy/5919 @EN{Scan on Polish Music Sources Website} @PL{Skany w portalu Dziedzictwo Muzyki Polskiej w otwartym dostępie}
!!!ONB-nifc: UWAGA: Discantus (s. 21v-23v, skan 0024-0026), Tenor (s. 18r-19r, skan 190-191), Bassus (s. 19r-20v, skan 0322-0324). Następna część: Ave Maria
!!!AIN: 1 alto 1 bass 1 tenor
!!!key:
**kern	**text	**text	**kern	**text	**text	**kern	**text	**text
*part3	*part3	*part3	*part2	*part2	*part2	*part1	*part1	*part1
*staff3	*staff3	*staff3	*staff2	*staff2	*staff2	*staff1	*staff1	*staff1
*I"Bassus	*	*	*I"Tenor	*	*	*I"Discantus	*	*
*I'B	*	*	*I'T	*	*	*I'A	*	*
*Ibass	*	*	*Itenor	*	*	*Ialto	*	*
*ICvox	*	*	*ICvox	*	*	*ICvox	*	*
*clefF4	*	*	*clefC4	*	*	*clefC3	*	*
*	*	*	*	*	*	*k[b-]	*	*
*	*	*	*	*	*	*F:	*	*
*M2/1	*	*	*	*	*	*M2/1	*	*
*met(O|)	*	*	*	*	*	*met(O|)	*	*
=1-	=1-	=1-	=1-	=1-	=1-	=1-	=1-	=1-
!LO:TX:t=P:problem=przy kluczu brak b-	!	!	!	!	!	!	!	!
!LO:TX:a:B:t=Prosa Primi Officij:color=red	!	!	!LO:TX:t=P:problem=przy kluczu brak b-	!	!	!	!	!
1C	Mit-	for-	1C	MIt-	For-	1c	Mit-	for-
2FF/	-tit	-tem	1F,<	-it	-te(m)	2c/	-tit	-tem
1BB-y/	ad	ex-	.	.	.	1d\	ad	ex-
=2-	=2-	=2-	=2-	=2-	=2-	=2-	=2-	=2-
.	.	.	1F	ad	ex-	.	.	.
2AA/	.	.	.	.	.	1c	vir-	-pe-
1GG	vir-	-pe-	1G,<	vir-	-pe-	.	.	.
.	.	.	.	.	.	2B-/	-gi-	-di-
=3-	=3-	=3-	=3-	=3-	=3-	=3-	=3-	=3-
1C	-gi-	-di-	1E	-gi-	-di-	2c/	.	.
.	.	.	.	.	.	2.A/	-nem	-at
2FF/	-nem	-at	1F,<	-ne(m)	-at	.	.	.
.	.	.	.	.	.	4B-/	.	.
1F\	non	Pro	.	.	.	2c/	.	.
=4-	=4-	=4-	=4-	=4-	=4-	=4-	=4-	=4-
.	.	.	1G	no(n)	pro	2B-/	no(n)	pro
2E/	que(m)-	no-	.	.	.	1G	quem-	no-
1D	-vis	-bis	1A	que(m)-	no-	.	.	.
.	.	.	.	.	.	2F/	.	.
=5-	=5-	=5-	=5-	=5-	=5-	=5-	=5-	=5-
2r	.	.	1B-y	-vis	-bis	1G	-vis	-bis
1GG	an-	nu(n)-	.	.	.	.	.	.
*	*	*	*custos:G	*	*	*custos:A	*	*
.	.	.	1A	an-	nun-	2r	.	.
!	!	!	!	!	!	!LO:LB:g=original	!	!
2FF/	-ge-	-cti-	.	.	.	2A/	an-	nu(n)c-
!	!	!	!LO:LB:g=original	!	!	!	!	!
=6-	=6-	=6-	=6-	=6-	=6-	=6-	=6-	=6-
*custos:G	*	*	*	*	*	*	*	*
2GG/	-lum	-um	1G	-ge-	ci-	1B-	-ge-	-ti-
*2\right	*	*	*	*	*	*	*	*
!LO:LB:g=original	!	!	!	!	!	!	!	!
2G\	.	.	.	.	.	.	.	.
1A	.	.	1F,<	-lu(m)	-u(m)	1c	-lum	-um
=7-	=7-	=7-	=7-	=7-	=7-	=7-	=7-	=7-
2A\	sed	na-	1A,<	ſed	na-	2F/	sed	na-
2.F/	for-	-tu-	.	.	.	1f	for-	-tu-
.	.	.	1c	for-	-tu-	.	.	.
4E/	.	.	.	.	.	.	.	.
*	*	*	*	*	*	*2\right	*	*
2C/	.	.	.	.	.	2e\	.	.
=8-	=8-	=8-	=8-	=8-	=8-	=8-	=8-	=8-
1G	-[ti]-	-re	1B-y	-ti-	-re	1d	-ti-	-re
2r	.	.	1A	-tu-	fa-	1c	-tu-	fa-
1F\	-tu-	fa-	.	.	.	.	.	.
=9-	=9-	=9-	=9-	=9-	=9-	=9-	=9-	=9-
.	.	.	1G	-di-	-ci-	2B-/	-di-	-ci-
2E/	-di-	-ci-	.	.	.	2G/	.	.
1F,<	-nem	-at	1F,<	-nem	-at	1A	-nem	at
=10-	=10-	=10-	=10-	=10-	=10-	=10-	=10-	=10-
*lig	*	*	*	*	*	*	*	*
1C	su-	Vt	1E	ſu-	vt	2G/	su-	vt
.	.	.	.	.	.	2.c/	.	.
1FF	-am	.	1F	.	.	.	.	.
.	.	.	.	.	.	4B-/	.	.
.	.	.	.	.	.	2A/	-am	.
*Xlig	*	*	*	*	*	*	*	*
=11-	=11-	=11-	=11-	=11-	=11-	=11-	=11-	=11-
2r	.	.	1G	-a(m)	pre-	2.G/	ar-	pre-
1C	ar-	pre-	.	.	.	.	.	.
.	.	.	.	.	.	4A/	.	.
.	.	.	1D	ar-	-iu-	4B-/	.	-iu-
*	*	*	*	*	*	*custos:d	*	*
.	.	.	.	.	.	4c/	.	.
!	!	!	!	!	!	!LO:LB:g=original	!	!
2BB-y/	.	-iu-	.	.	.	1d\	.	.
=12-	=12-	=12-	=12-	=12-	=12-	=12-	=12-	=12-
1C	-chan-	-di-	1E	-cha(n)-	-di-	.	.	.
.	.	.	.	.	.	1c	-chan-	-di-
*custos:G	*	*	*	*	*	*	*	*
1GG	.	.	1D	-ge-	-ci-	.	.	.
.	.	.	.	.	.	2B-/	-ge-	-ci-
!LO:LB:g=original	!	!	!	!	!	!	!	!
=13-	=13-	=13-	=13-	=13-	=13-	=13-	=13-	=13-
2.G\	-(ge)-	-ci-	1C	-lum	-um	1c	-lu(m)	-um
4F\	.	.	.	.	.	.	.	.
2E/	-lum	-vm	1G	a-	in	2r	.	.
2C/	a-	in	.	.	.	2e\	a-	in
=14-	=14-	=14-	=14-	=14-	=14-	=14-	=14-	=14-
1D	-ma-	par-	1F	-ma-	par-	1f	-ma-	par-
2C/	.	.	1G	.	.	2e\	.	.
2BB-y/	.	.	.	.	.	2d/	.	.
=15-	=15-	=15-	=15-	=15-	=15-	=15-	=15-	=15-
1AA	-tor	-tu	1A	.	.	1c	.	.
*	*	*	*custos:F	*	*	*	*	*
2.BB-y/	Ho-	vir-	1F	-tor	-tu	2.d/	tor	-tu
4C/	.	.	.	.	.	4e\	.	.
!	!	!	!LO:PB:g=original	!	!	!	!	!
=16-	=16-	=16-	=16-	=16-	=16-	=16-	=16-	=16-
!	!	!	!LO:TX:a:B:t=Proſa Primi Officij:color=red	!	!	!	!	!
2D/	.	.	1F	ho-	vir-	2f\	ho-	vir-
2BB-y/	.	.	.	.	.	2d/	.	.
1C	.	.	1E	.	.	2e/	.	.
.	.	.	.	.	.	1g\	.	.
=17-	=17-	=17-	=17-	=17-	=17-	=17-	=17-	=17-
1r	.	.	1D	.	.	.	.	.
.	.	.	.	.	.	2f\	.	.
1C	-mi-	gi-	1E	-mi-	-gi-	1g	-mi-	-gi-
=18-	=18-	=18-	=18-	=18-	=18-	=18-	=18-	=18-
*custos:F	*	*	*	*	*	*custos:B	*	*
!	!	!	!LO:TX:t=P:problem=kreska pseudotaktowa podwójna	!	!	!	!	!
0FFl;	-nis	-niis	0Fl	-nis	-nis	0fl;	-nis	-nis
!LO:LB:g=original	!	!	!	!	!	!LO:PB:g=original	!	!
=19||	=19||	=19||	=19||	=19||	=19||	=19||	=19||	=19||
!	!	!	!	!	!	!LO:TX:a:B:t=Proſa Primi Officij:color=red	!	!
1F	Na-	Su-	1A	Na-	Su-	1A	Na-	Su-
2C/	-tu-	-per-	1c	-tu-	-per-	2G/	-tu-	-per-
2F\	.	.	.	.	.	2A/	.	.
=20-	=20-	=20-	=20-	=20-	=20-	=20-	=20-	=20-
2C/	-ram	-bi-	1c,<	-ra(m)	-bi-	2G/	-ram	-bi-
2F\	.	.	.	.	.	1F	.	-en-
1G	Su-	-en-	1B-y	ſu-	-en-	.	.	.
.	.	.	.	.	.	2E/	su-	.
=21-	=21-	=21-	=21-	=21-	=21-	=21-	=21-	=21-
1F	-pe-	-ci-	1A	-p(e-	-ti-	2F/	-pe-	-ci-
.	.	.	.	.	.	2.c/	-rat	-vm
1C	-rat	-um	1G	-r)at	-u(m)	.	.	.
.	.	.	.	.	.	4B-/	.	.
.	.	.	.	.	.	4A/	.	.
.	.	.	.	.	.	4G/	.	.
=22-	=22-	=22-	=22-	=22-	=22-	=22-	=22-	=22-
2F/	na-	ter-	1A	na-	ter-	2F/	na-	ter-
2.D/	-tus	-rat	.	.	.	2.f\	.	.
.	.	.	1F,<	-tus	-rat	.	.	.
4E/	.	.	.	.	.	4e/	.	.
2F\	.	.	.	.	.	2c/	-tus	-rat
=23-	=23-	=23-	=23-	=23-	=23-	=23-	=23-	=23-
1BB-y	rex	fa-	1B-y,<	rex	faſ-	1d	rex	fas-
2r	.	.	1A	glo-	-ti-	2c/	glo-	-ti-
2F\	glo-	-sti-	.	.	.	2A/	.	.
=24-	=24-	=24-	=24-	=24-	=24-	=24-	=24-	=24-
*	*	*	*	*	*	*custos:A	*	*
1G	-ri-	-di-	1G	-ri-	-gi-	1B-	-ri-	-di-
!	!	!	!	!	!	!LO:LB:g=original	!	!
1D	-e	-a	1A,<	-e	-a	2A/	-e	-[a]
.	.	.	.	.	.	1d\	reg-	co-
=25-	=25-	=25-	=25-	=25-	=25-	=25-	=25-	=25-
*custos:F	*	*	*	*	*	*	*	*
2D/	re-	co-	1A	re-	col-	.	.	.
!LO:PB:g=original	!	!	!	!	!	!	!	!
!LO:TX:a:B:t=Prosa Primi Officij:color=red	!	!	!	!	!	!	!	!
2.F/	-gnat	-las	.	.	.	2.c/	-nat	-la
.	.	.	1c,<	-g(n)at	-la	.	.	.
4E/	.	.	.	.	.	4d/	.	.
2C/	et	Sub-	.	.	.	2e\	e(t)	Su-
=26-	=26-	=26-	=26-	=26-	=26-	=26-	=26-	=26-
2F/	im-	-li-	1c,<	et	ſu-	2f\	im-	-bli-
2C/	.	.	.	.	.	2e\	.	.
*	*	*	*custos:A	*	*	*	*	*
1G	.	.	1B-y	im-	-bli-	2d/	-pe-	mi-
.	.	.	.	.	.	2g\	.	.
!	!	!	!LO:LB:g=original	!	!	!	!	!
=27-	=27-	=27-	=27-	=27-	=27-	=27-	=27-	=27-
1F	-pe-	-mi-	1A	-pe-	-mi-	2c/	.	.
.	.	.	.	.	.	1f	-rat	-u(m)
1C	-rat	-um	1G,<	-rat	-u(m)	.	.	.
.	.	.	.	.	.	2e\	.	.
=28-	=28-	=28-	=28-	=28-	=28-	=28-	=28-	=28-
2r	.	.	1A,<	et	cal-	2.f\	e(t)	cal-
2.FF/	e(t)	cal-	.	.	.	.	.	.
.	.	.	.	.	.	4e\	.	.
.	.	.	1F	Zi-	-cet	2d/	Zi-	-cet
4GG/	.	.	.	.	.	.	.	.
2AA/	zi-	-cet	.	.	.	2c/	.	.
=29-	=29-	=29-	=29-	=29-	=29-	=29-	=29-	=29-
1GG	.	vi	1B-y,<	-maſ-	vi	2B-/	-ma-	vi
.	.	.	.	.	.	2G/	.	.
*	*	*	*	*	*	*custos:d	*	*
2FF/	-na-	pro-	1A	-sco-	p(ro)-	2A/	-sco-	pro-
!	!	!	!	!	!	!LO:LB:g=original	!	!
1F\	-sco-	.	.	.	.	2.d/	-ri-	-pri-
=30-	=30-	=30-	=30-	=30-	=30-	=30-	=30-	=30-
.	.	.	1G	-ri-	-pri-	.	.	.
.	.	.	.	.	.	4c/	.	.
2E/	.	.	.	.	.	2B-/	.	.
*	*	*	*lig	*	*	*	*	*
2F/	.	.	1F	-e	-a	2A/	-e	-a
2D/	.	.	.	.	.	2F/	.	.
=31-	=31-	=31-	=31-	=31-	=31-	=31-	=31-	=31-
1C	-ri-	-pri-	1E,<	.	.	2G/	.	.
.	.	.	.	.	.	2c/	.	.
*	*	*	*Xlig	*	*	*	*	*
*custos:AA	*	*	*	*	*	*	*	*
1BB-y	-e	-a	1G	tol-	po-	1d	tol-	Po-
!LO:LB:g=original	!	!	!	!	!	!	!	!
=32-	=32-	=32-	=32-	=32-	=32-	=32-	=32-	=32-
1AA	tol-	Po-	1A	-lit	-tens	1c	-lis	-tens
1D	-lit	-tens	1F	de	in	2.d/	de	ni
.	.	.	.	.	.	4c/	.	.
=33-	=33-	=33-	=33-	=33-	=33-	=33-	=33-	=33-
1D	de	ni	1F	me-	pre-	2A/	me-	pre-
.	.	.	.	.	.	2B-/	.	.
1C	me-	Pre-	1E	.	.	1c	.	.
=34-	=34-	=34-	=34-	=34-	=34-	=34-	=34-	=34-
2BB-y/	.	.	1D	.	.	2.d/	.	.
2AA/	.	.	.	.	.	.	.	.
.	.	.	.	.	.	4c/	.	.
1GG	-di-	-ti-	1E	-di-	-ti-	1B-	-di-	-ti-
=35-	=35-	=35-	=35-	=35-	=35-	=35-	=35-	=35-
*	*	*	*	*	*	*custos:c	*	*
!	!	!	!LO:TX:t=P:problem=kreska pseudotaktowa podwójna	!	!	!	!	!
0FFl;	-o	-o	0Fl	-o	-o	0Al;	-o	-o
!	!	!	!	!	!	!LO:LB:g=original	!	!
=36||	=36||	=36||	=36||	=36||	=36||	=36||	=36||	=36||
1FF	fo-	E-	1E	Fo-	E-	1c	fo-	E-
2FF/	-ras	-xi	1F,<	-ras	-xi	2A/	-ras	-xi
2GG/	.	.	.	.	.	2B-/	.	.
=37-	=37-	=37-	=37-	=37-	=37-	=37-	=37-	=37-
2FF/	e-	qui	1A,<	e-	qui	2A/	e-	qui
2.BB-y/	-i-	mit-	.	.	.	2.F/	-i-	mit-
*	*	*	*custos:E	*	*	*	*	*
.	.	.	1A	-i-	mit-	.	.	.
4AA/	.	.	.	.	.	4G/	.	.
2FF/	-ci-	-te-	.	.	.	4A/	-ci-	.
.	.	.	.	.	.	4B-/	.	.
!	!	!	!LO:LB:g=original	!	!	!	!	!
=38-	=38-	=38-	=38-	=38-	=38-	=38-	=38-	=38-
1C	-at	-ris	1E	-ci-	-te-	1c	.	te-
1r	.	.	1G,<	-at	-ris	2B-/	-at	-ris
.	.	.	.	.	.	2d/	.	.
=39-	=39-	=39-	=39-	=39-	=39-	=39-	=39-	=39-
*custos:FF	*	*	*	*	*	*	*	*
1C	m(u)n-	hec	1E	mu(n)-	hec	2G/	mu(n)-	hec
.	.	.	.	.	.	2.c/	-da-	do-
!LO:LB:g=original	!	!	!	!	!	!	!	!
1FF	-da-	do-	1F	-da-	do-	.	.	.
.	.	.	.	.	.	4B-/	.	.
.	.	.	.	.	.	2A/	-nu(m)	-na
=40-	=40-	=40-	=40-	=40-	=40-	=40-	=40-	=40-
*lig	*	*	*lig	*	*	*	*	*
1C	-nu(m)	-na	1E	-nu(m)	-na	1G	.	di-
1D	.	.	1D,<	.	.	1F	.	.
*Xlig	*	*	*Xlig	*	*	*	*	*
=41-	=41-	=41-	=41-	=41-	=41-	=41-	=41-	=41-
*	*	*	*	*	*	*custos:c	*	*
1C	prin-	dis-	1E,<	pr(i)n-	diſ-	2G/	prin-	.
!	!	!	!	!	!	!LO:LB:g=original	!	!
.	.	.	.	.	.	1c	-ci-	-ſse-
1GG	-ci-	-ſe-	1D	-(c)i-	-se-	.	.	.
.	.	.	.	.	.	2B-/	.	.
=42-	=42-	=42-	=42-	=42-	=42-	=42-	=42-	=42-
2AA/	-pem	-re	1C,<	-pem	-re	2c/	-pem	-re
2FF/	.	.	.	.	.	2A/	.	.
2C/	ma-	re-	1C	ma-	re-	2G/	ma-	re-
2AA/	.	.	.	.	.	2A/	.	.
=43-	=43-	=43-	=43-	=43-	=43-	=43-	=43-	=43-
2BB-y/	-trem-	-ve-	1D,<	-tre(m)-	-vel-	2F/	-tre(m)-	-ve-
2GG/	.	.	.	.	.	2G/	.	.
2FF/	-q(ue)	-la	1F,<	-q(ue)	-la	2.A/	-q(ue)	-la
2.F\	fa-	ve-	.	.	.	.	.	.
.	.	.	.	.	.	4B-/	.	.
=44-	=44-	=44-	=44-	=44-	=44-	=44-	=44-	=44-
.	.	.	1F	fa-	ve-	2c/	fa-	ve-
4E/	.	.	.	.	.	.	.	.
1D	.	-te-	.	.	.	2d/	.	.
.	.	.	1E	-ci-	-te-	1e	-ci-	-te-
2C/	-ci-	.	.	.	.	.	.	.
=45-	=45-	=45-	=45-	=45-	=45-	=45-	=45-	=45-
2BB-y/	-at	-[ris]	1G,<	-at	-ris	2d/	-at	-ris
2GG/	.	.	.	.	.	2.g\	se-	ve-
*custos:FF	*	*	*	*	*	*	*	*
1C	se-	.	1G	ſe-	ve-	.	.	.
.	.	.	.	.	.	4f\	.	.
.	.	.	.	.	.	2e\	.	.
!LO:LB:g=original	!	!	!	!	!	!	!	!
=46-	=46-	=46-	=46-	=46-	=46-	=46-	=46-	=46-
2FF/	-cum	.	1A,<	-cum	-la-	2.f\	-cum	-la-
2F\	.	.	.	.	.	.	.	.
*	*	*	*	*	*	*custos:d	*	*
.	.	.	.	.	.	4e\	.	.
!	!	!	!	!	!	!LO:PB:g=original	!	!
!	!	!	!	!	!	!LO:TX:a:B:t=Prosa Primi Officij:color=red	!	!
1G	Par-	.	1B-y	par-	-me(n)	1d	Par-	-[men]
=47-	=47-	=47-	=47-	=47-	=47-	=47-	=47-	=47-
*	*	*	*custos:G	*	*	*	*	*
2C/	-ti-	.	1A	-ti-	li-	2c/	-ti-	li-
1F	.	.	.	.	.	2A/	.	.
!	!	!	!LO:LB:g=original	!	!	!	!	!
.	.	.	1G	-ci-	-te-	1B-	-ci-	-te-
2E\	-ci-	.	.	.	.	.	.	.
=48-	=48-	=48-	=48-	=48-	=48-	=48-	=48-	=48-
*	*	*	*lig	*	*	*	*	*
2F\	-pem	.	1F	-pem	-re	2A/	.	.
2D/	.	.	.	.	.	1d	-pem	-[re]
1G	.	.	1E,<	.	.	.	.	.
.	.	.	.	.	.	2.c/	pa-	vir-
*	*	*	*Xlig	*	*	*	*	*
=49-	=49-	=49-	=49-	=49-	=49-	=49-	=49-	=49-
1C	Pa-	Vir-	1G	p(a-	vir-	.	.	.
.	.	.	.	.	.	4d/	.	.
.	.	.	.	.	.	2e\	.	.
1F	-tris	-tu-	1A,<	-t)ris	-tu-	2.f\	.	-tu-
.	.	.	.	.	.	4e\	.	.
=50-	=50-	=50-	=50-	=50-	=50-	=50-	=50-	=50-
2F\	mi-	-te	1F	im-	-te	2c/	.	.
2.D/	-pe-	nun-	.	.	.	2.d/	.	.
.	.	.	1F	-pe-	nu(n)-	.	.	.
4E/	.	.	.	.	.	4c/	.	.
2F\	.	.	.	.	.	4A/	-tris	-te
.	.	.	.	.	.	4B-/	.	.
=51-	=51-	=51-	=51-	=51-	=51-	=51-	=51-	=51-
1C	.	.	1E	.	.	2.c/	im-	nun-
*	*	*	*	*	*	*custos:A	*	*
.	.	.	.	.	.	4B-/	.	.
!	!	!	!	!	!	!LO:LB:g=original	!	!
2D/	.	.	1D	.	.	2A/	.	.
*custos:C	*	*	*	*	*	*	*	*
2BB-y/	.	.	.	.	.	2B-/	.	.
!LO:LB:g=original	!	!	!	!	!	!	!	!
=52-	=52-	=52-	=52-	=52-	=52-	=52-	=52-	=52-
1C	.	.	1E	.	.	1G	.	.
!	!	!	!LO:TX:t=P:problem=kreska pseudotaktowa podwójna	!	!	!	!	!
[1FFl;	-rij	-cij	[1Fl	-rij	-cij	1.F	-pe-	.
=53-	=53-	=53-	=53-	=53-	=53-	=53-	=53-	=53-
0FF]	.	.	0F]	.	.	.	.	.
.	.	.	.	.	.	2G/	.	.
.	.	.	.	.	.	1Al;	-rij	-ctij
=54||	=54||	=54||	=54||	=54||	=54||	=54||	=54||	=54||
1F	Ac-	Vir-	1F	Ac-	Vir-	1f	Ac-	Vir-
2.C/	-ce-	-go	1c	-ce-	-go	2e\	-ce-	-go
.	.	.	.	.	.	2.c/	-de	sus-
4D/	.	.	.	.	.	.	.	.
=55-	=55-	=55-	=55-	=55-	=55-	=55-	=55-	=55-
2E/	.	.	1c	-de	Sus-	.	.	.
.	.	.	.	.	.	4B-/	.	.
1F	-de	sus-	.	.	.	4A/	.	.
.	.	.	.	.	.	4G/	.	.
.	.	.	1d	nu(n)-	-ci-	2A/	.	.
2F\	nun-	-ci-	.	.	.	1d\	nu(n)-	-ci-
=56-	=56-	=56-	=56-	=56-	=56-	=56-	=56-	=56-
1D	-cti-	-pi-	1B-y	-ci-	-pi-	.	.	.
.	.	.	.	.	.	2d/	-cti-	-pi-
*	*	*	*custos:d	*	*	*custos:f	*	*
1C	-a	-as	1c	-a	-ens	1e	-a	-as
!	!	!	!	!	!	!LO:LB:g=original	!	!
=57-	=57-	=57-	=57-	=57-	=57-	=57-	=57-	=57-
*	*	*	*clefC3	*	*	*	*	*
2r	.	.	1d	dic	de-	2f\	dic	de-
2G\	dic	de-	.	.	.	2.d\	a-	-i
*	*	*	*custos:c	*	*	*	*	*
2.F\	a-	-i	1f	a-	-i	.	.	.
.	.	.	.	.	.	4e\	.	.
.	.	.	.	.	.	2f\	.	.
4G\	.	.	.	.	.	.	.	.
!	!	!	!LO:LB:g=original	!	!	!	!	!
=58-	=58-	=58-	=58-	=58-	=58-	=58-	=58-	=58-
*custos:G	*	*	*	*	*	*	*	*
1A	-ve	de-	1c,<	-ve	de-	2e\	-ve	de-
.	.	.	.	.	.	1c	co-	-po-
!LO:PB:g=original	!	!	!	!LO:MO:mod=co-	!	!	!	!
1.G	co-	-Po-	1d	quo-	-po-	.	.	.
.	.	.	.	.	.	2.A/	.	.
=59-	=59-	=59-	=59-	=59-	=59-	=59-	=59-	=59-
.	.	.	1B-y	-mi-	-ſi-	.	.	.
.	.	.	.	.	.	4B-/	.	.
2F/	-mi-	-si-	.	.	.	2d/	-mi-	-si-
1E	-nus	-tu(m)	1c,<	-nus	-tu(m)	2G/	-nus	-tum
.	.	.	.	.	.	1c\	.	.
=60-	=60-	=60-	=60-	=60-	=60-	=60-	=60-	=60-
1D	dic	in	1d,<	dic	in	.	.	.
.	.	.	.	.	.	2B-/	dic	in
2C/	ple-	quo	1e	ple-	q(uo)	1c	ple-	quo
1C/	-na	per-	.	.	.	.	.	.
=61-	=61-	=61-	=61-	=61-	=61-	=61-	=61-	=61-
.	.	.	1f,<	-na	per-	1d	-na	per-
2BB-y/	.	.	.	.	.	.	.	.
1C	gra-	-fi-	1e	gr(a-	-fi-	1G	.	.
=62-	=62-	=62-	=62-	=62-	=62-	=62-	=62-	=62-
1G	-ti-	-ci-	1d	ti)-	-ci-	2r	.	.
.	.	.	.	.	.	2.g\	gra-	-fi-
1C	-a	-as	1c,<	-a	-as	.	.	.
*	*	*	*	*	*	*custos:e	*	*
.	.	.	.	.	.	4f\	.	.
!	!	!	!	!	!	!LO:LB:g=original	!	!
.	.	.	.	.	.	2e\	-ci-	.
=63-	=63-	=63-	=63-	=63-	=63-	=63-	=63-	=63-
1r	.	.	1A	dic	caſ-	2f\	-a	-ci-
.	.	.	.	.	.	4e\	.	.
.	.	.	.	.	.	4d\	.	.
1C	dic	ca-	1c	te-	-tu(m)	2e\	dic	-as
.	.	.	.	.	.	1c\	.	ca-
=64-	=64-	=64-	=64-	=64-	=64-	=64-	=64-	=64-
1GG	te-	-stu(m)	1d,<	-cu(m)	pro-	.	.	.
.	.	.	.	.	.	2B-/	.	.
1C	cum	pro-	1c	do-	-po-	1c	te-	.
=65-	=65-	=65-	=65-	=65-	=65-	=65-	=65-	=65-
*	*	*	*lig	*	*	*	*	*
2GG/	do-	.	1B-y	-mi-	-ſi-	1d	-cum	-ſtum
1G	.	-po-	.	.	.	.	.	.
.	.	.	1A	.	.	2r	.	.
2F/	-mi-	-si-	.	.	.	1d\	do-	Pro-
*	*	*	*Xlig	*	*	*	*	*
=66-	=66-	=66-	=66-	=66-	=66-	=66-	=66-	=66-
*custos:C	*	*	*	*	*	*	*	*
2G/	-nus	-tum	1G,<	-n(u)ſ	-tu(m)	.	.	.
!LO:LB:g=original	!	!	!	!	!	!	!	!
2C/	.	.	.	.	.	4c/	.	.
.	.	.	.	.	.	4B-/	.	.
1D	et	et	1F,<	et	.	2A/	.	-po-
.	.	.	.	.	.	1d\	-mi-	-si-
=67-	=67-	=67-	=67-	=67-	=67-	=67-	=67-	=67-
2D/	dic	vo-	1A,<	dic	et	.	.	.
2.F\	ne	.	.	.	.	4c/	.	.
.	.	.	.	.	.	4B-/	.	.
.	.	.	1c	ne	vo-	2A/	-nus	-tum
4E/	.	-tum	.	.	.	.	.	.
2C/	ti-	te	.	.	.	2G/	et	et
=68-	=68-	=68-	=68-	=68-	=68-	=68-	=68-	=68-
*	*	*	*custos:A	*	*	*	*	*
2D/	.	.	1B-y	ti-	-tum	2F/	dic	vo-
*	*	*	*	*	*	*custos:F	*	*
2E/	.	.	.	.	.	2G/	ne	.
!	!	!	!LO:PB:g=original	!	!	!LO:LB:g=original	!	!
1F	.	.	1A	.	te-	2F/	.	-tum
.	.	.	.	.	.	1f\	ti-	te-
=69-	=69-	=69-	=69-	=69-	=69-	=69-	=69-	=69-
1C	.	.	1G	.	.	.	.	.
.	.	.	.	.	.	2e\	.	.
2r	.	.	1F	.	.	2d/	.	.
2F\	-ti-	te-	.	.	.	2c/	.	.
=70-	=70-	=70-	=70-	=70-	=70-	=70-	=70-	=70-
0C	-me-	.	1E	.	.	2.g\	.	.
.	.	.	.	.	.	4f\	.	.
.	.	.	0G	-me-	-ne-	2e\	.	.
.	.	.	.	.	.	1f\	-me-	-ne-
=71-	=71-	=71-	=71-	=71-	=71-	=71-	=71-	=71-
1C	.	-ne-	.	.	.	.	.	.
.	.	.	.	.	.	2e\	.	.
!	!	!	!LO:TX:t=P:problem=kreska pseudotaktowa podwójna	!	!	!	!	!
1FFl;	-as	-as	1Fl	-as	-as	1fl;	-as	-as
=72||	=72||	=72||	=72||	=72||	=72||	=72||	=72||	=72||
1D	Au-	Con-	1A	Au-	Con-	1.d	Au-	Con-
*custos:D	*	*	*	*	*	*	*	*
1GG	-dit	-si-	1G,<	-dit	-ſi-	.	.	.
.	.	.	.	.	.	2e\	.	-si-
!LO:LB:g=original	!	!	!	!	!	!	!	!
=73-	=73-	=73-	=73-	=73-	=73-	=73-	=73-	=73-
1D	et	-li-	1A,<	et	-li-	1f	-dit	-li-
1GG	su-	-a-	1B-y	Sus-	-a-	1.d	et	-a-
=74-	=74-	=74-	=74-	=74-	=74-	=74-	=74-	=74-
1D	-sci-	-ri-	1A	-ci-	-ri-	.	.	.
*	*	*	*	*	*	*custos:B	*	*
.	.	.	.	.	.	2c/	Su-	.
!	!	!	!	!	!	!LO:PB:g=original	!	!
1GG	-pit	-um	1G,<	-p(i)t	-u(m)	1B-	-sci-	-ri-
=75-	=75-	=75-	=75-	=75-	=75-	=75-	=75-	=75-
1D	pu-	hu-	1A	pu-	hu-	2A/	-pit	-um
.	.	.	.	.	.	2.F/	pu-	hv-
2D/	-el-	-ma-	1F	.	.	.	.	.
.	.	.	.	.	.	4G/	.	.
1F\	-la	.	.	.	.	2A/	.	.
=76-	=76-	=76-	=76-	=76-	=76-	=76-	=76-	=76-
.	.	.	1G	-el-	-ma-	1B-	-e-	-ma-
2E/	.	.	.	.	.	.	.	.
2F/	.	-ni	1F,<	-la	-ni	2A/	-la	-ni
2D/	.	.	.	.	.	2B-/	.	.
=77-	=77-	=77-	=77-	=77-	=77-	=77-	=77-	=77-
*	*	*	*clefC4	*	*	*	*	*
1C	nu(n)-	ge-	1E	nun-	.	2c/	nu(n)-	.
.	.	.	.	.	.	1A	-cti-	ge-
2D/	.	-ne-	1D	-ci-	ge-	.	.	.
2BB-y/	-ct(i)-	.	.	.	.	2B-/	.	.
=78-	=78-	=78-	=78-	=78-	=78-	=78-	=78-	=78-
1C	-um	-ris	1E,<	-u(m)	-ne-	1G	-um	-ne-
2r	.	.	1F	cre-	-ris	2F/	cre-	-ris
1D\	cre-	et	.	.	.	2.f\	.	et
=79-	=79-	=79-	=79-	=79-	=79-	=79-	=79-	=79-
*	*	*	*custos:c	*	*	*	*	*
.	.	.	1A	-[dit]-	et	.	.	.
.	.	.	.	.	.	4e\	.	.
2D/	-dit	de-	.	.	.	2d/	-dit	de-
!	!	!	!LO:LB:g=original	!	!	!	!	!
1C	et	.	1c,<	-dit	de-	2e/	.	.
.	.	.	.	.	.	1c\	et	-um
=80-	=80-	=80-	=80-	=80-	=80-	=80-	=80-	=80-
*custos:C	*	*	*	*	*	*	*	*
1GG	con-	-vm	1d,<	et	-u(m)	.	.	.
.	.	.	.	.	.	2B-/	.	.
*lig	*	*	*	*	*	*	*	*
*	*	*	*	*	*	*custos:A	*	*
!LO:LB:g=original	!	!	!	!	!	!	!	!
1C	-(ci)-	for-	1c	con-	for-	2c/	.	.
!	!	!	!	!	!	!LO:LB:g=original	!	!
.	.	.	.	.	.	1A/	con-	.
=81-	=81-	=81-	=81-	=81-	=81-	=81-	=81-	=81-
1GG	.	-ci-	1B-y	-ci-	-ci-	.	.	.
.	.	.	.	.	.	2G/	-ci-	for-
*Xlig	*	*	*	*	*	*	*	*
1FF	-pit	-um	1A,<	-pit	-u(m)	2A/	-pit	-ci-
.	.	.	.	.	.	1F/	et	.
=82-	=82-	=82-	=82-	=82-	=82-	=82-	=82-	=82-
1C	et	et	1G	et	et	.	.	.
.	.	.	.	.	.	2E/	.	-um
*lig	*	*	*	*	*	*	*	*
1FF	pa-	pa-	1A	pa-	pat-	2F/	.	et
.	.	.	.	.	.	1f\	pa-	Pa-
=83-	=83-	=83-	=83-	=83-	=83-	=83-	=83-	=83-
1C	.	.	1G	-rit	-rem	.	.	.
.	.	.	.	.	.	2e\	-rit	.
*Xlig	*	*	*	*	*	*	*	*
2.D/	-rit	-trem	1F	fi-	poſ-	2.f\	fi-	-trem
4C/	.	.	.	.	.	4e\	.	.
=84-	=84-	=84-	=84-	=84-	=84-	=84-	=84-	=84-
1BB-y	fi-	po-	1G	-li-	-te-	1d	-li-	po-
2AA/	.	.	1A	.	.	2c/	.	.
2FF/	.	.	.	.	.	1A/	.	.
=85-	=85-	=85-	=85-	=85-	=85-	=85-	=85-	=85-
2GG/	.	-ste-	1B-y	.	.	.	.	.
2G\	-li-	.	.	.	.	2G/	.	.
1F	-um	-ris	1A,<	-u(m)	-ris	2A/	-um	.
.	.	.	.	.	.	2.c/	.	.
=86-	=86-	=86-	=86-	=86-	=86-	=86-	=86-	=86-
1F	Sed	in	1c	ſed	in	.	.	.
.	.	.	.	.	.	4B-/	.	.
.	.	.	.	.	.	1A	Sed	-ste-
1BB-y	.	.	1d	.	.	.	.	.
*	*	*	*	*	*	*custos:A	*	*
.	.	.	.	.	.	2G/	.	.
!	!	!	!	!	!	!LO:LB:g=original	!	!
=87-	=87-	=87-	=87-	=87-	=87-	=87-	=87-	=87-
1r	.	.	1c	.	.	2A/	.	-ris
.	.	.	.	.	.	2.F/	ad-	in
2r	.	.	1F	ad-	fi-	.	.	.
.	.	.	.	.	.	4G/	.	.
1F\	ad	fi-	.	.	.	2A/	.	.
=88-	=88-	=88-	=88-	=88-	=88-	=88-	=88-	=88-
.	.	.	1G	-mi-	-de	2B-/	.	.
2E/	.	.	.	.	.	2G/	.	.
*custos:BB	*	*	*	*	*	*	*	*
1F	.	.	1A	-ra-	ſta-	1c	.	fi-
!LO:LB:g=original	!	!	!	!	!	!	!	!
=89-	=89-	=89-	=89-	=89-	=89-	=89-	=89-	=89-
*	*	*	*lig	*	*	*	*	*
1BB-y	.	-de	1B-y	-bi-	-bi-	1d	.	.
2r	.	.	1A	.	.	2c/	.	-de
2FF/	ad-	Sta-	.	.	.	1f\	-mi-	Sta-
*	*	*	*Xlig	*	*	*	*	*
=90-	=90-	=90-	=90-	=90-	=90-	=90-	=90-	=90-
*	*	*	*lig	*	*	*	*	*
1C	-mi-	.	1G	.	.	.	.	.
.	.	.	.	.	.	2e\	.	.
2.D/	-ra-	-bi-	1F	.	.	2.f\	-ra-	.
4C/	.	.	.	.	.	4e\	.	.
*	*	*	*Xlig	*	*	*	*	*
=91-	=91-	=91-	=91-	=91-	=91-	=91-	=91-	=91-
*	*	*	*custos:A	*	*	*	*	*
2BB-y/	-bi-	.	0Fl	-le(m)	-le(m)	2d/	-bi-	-bi-
4AA/	.	.	.	.	.	4c/	.	.
4GG/	.	.	.	.	.	4B-/	.	.
1FFl;	-lem	-lem	.	.	.	1Al;	-lem	-lem
!	!	!	!LO:LB:g=original	!	!	!LO:LB:g=original	!	!
=92||	=92||	=92||	=92||	=92||	=92||	=92||	=92||	=92||
1D	Qui	.	1A,<	Qvi	.	1A	Qui	.
1G	no-	.	1G	no-	.	1B-	no-	.
=93-	=93-	=93-	=93-	=93-	=93-	=93-	=93-	=93-
1D	-bis	.	1A,<	-b(is)	.	2c/	.	.
.	.	.	.	.	.	1A	-bis	.
1G	tri-	.	1B-y	tri-	.	.	.	.
.	.	.	.	.	.	2G/	tri-	.
=94-	=94-	=94-	=94-	=94-	=94-	=94-	=94-	=94-
1F	-bu-	.	1A	-bu-	.	2A/	.	.
.	.	.	.	.	.	1F	-bu-	.
1C	-at	.	1G	-at	.	.	.	.
.	.	.	.	.	.	2E/	.	.
=95-	=95-	=95-	=95-	=95-	=95-	=95-	=95-	=95-
*custos:F	*	*	*	*	*	*	*	*
2r	.	.	1A	pec-	.	2F/	-at	.
!LO:PB:g=original	!	!	!	!	!	!	!	!
2.F/	Pec-	.	.	.	.	2D/	Pec-	.
.	.	.	1F	-(ca)-	.	1d	-ca-	.
4E/	.	.	.	.	.	.	.	.
2D/	-ca-	.	.	.	.	.	.	.
=96-	=96-	=96-	=96-	=96-	=96-	=96-	=96-	=96-
1C	-ti	.	1G,<	-ti	.	1e	-ti	.
1D	ve-	.	1F	ve-	.	2f\	ve-	.
.	.	.	.	.	.	1d\	.	.
=97-	=97-	=97-	=97-	=97-	=97-	=97-	=97-	=97-
1AA	.	.	1E	.	.	.	.	.
.	.	.	.	.	.	2c/	.	.
2r	.	.	1D	.	.	1d	.	.
2A\	.	.	.	.	.	.	.	.
=98-	=98-	=98-	=98-	=98-	=98-	=98-	=98-	=98-
1G	-ni-	.	1E	-ni-	.	2.c/	.	.
*	*	*	*	*	*	*custos:A	*	*
.	.	.	.	.	.	4B-/	-ni-	.
!	!	!	!	!	!	!LO:LB:g=original	!	!
*	*	*	*	*	*	*clefC4	*	*
2F/	-am	.	1F,<	-a(m)	.	2A/	-am	.
2.D/	re-	.	.	.	.	2.d\	re-	.
=99-	=99-	=99-	=99-	=99-	=99-	=99-	=99-	=99-
.	.	.	1F	re-	.	.	.	.
4E/	.	.	.	.	.	4c\	.	.
2F/	-a-	.	.	.	.	4B-\	.	.
.	.	.	.	.	.	4A/	.	.
2C/	.	.	1c	-a-	.	2G/	-a-	.
2.F/	-tus	.	.	.	.	2.A/	-tvs	.
=100-	=100-	=100-	=100-	=100-	=100-	=100-	=100-	=100-
.	.	.	1c,<	-tus	.	.	.	.
4E/	.	.	.	.	.	4G/	.	.
4D/	.	.	.	.	.	4F/	.	.
*custos:BB	*	*	*	*	*	*	*	*
4C/	.	.	.	.	.	4E/	.	.
!LO:LB:g=original	!	!	!	!	!	!	!	!
2BB-y/	.	.	1d	di-	.	2D/	.	.
1GG/	dil-	.	.	.	.	1G/	di-	.
=101-	=101-	=101-	=101-	=101-	=101-	=101-	=101-	=101-
.	.	.	1B-y	-lu-	.	.	.	.
2GG/	-lu-	.	.	.	.	2G/	-lu-	.
1FF	-at	.	1c,<	-at	.	2A/	-at	.
.	.	.	.	.	.	2.F/	it	.
=102-	=102-	=102-	=102-	=102-	=102-	=102-	=102-	=102-
2r	.	.	1F,<	et	.	.	.	.
.	.	.	.	.	.	4G/	.	.
1F	et	.	.	.	.	2A/	do-	.
*	*	*	*custos:A	*	*	*	*	*
.	.	.	1G	do-	.	1B-	.	.
2E\	.	.	.	.	.	.	.	.
!	!	!	!LO:LB:g=original	!	!	!	!	!
=103-	=103-	=103-	=103-	=103-	=103-	=103-	=103-	=103-
1F	do-	.	1A	-net	.	2A/	.	.
*	*	*	*	*	*	*custos:d	*	*
.	.	.	.	.	.	1d	-net	.
1D	-net	.	1B-y	.	.	.	.	.
!	!	!	!	!	!	!LO:PB:g=original	!	!
.	.	.	.	.	.	2d\	Pa-	.
=104-	=104-	=104-	=104-	=104-	=104-	=104-	=104-	=104-
2C/	pa-	.	1c	pa-	.	2e\	.	.
2F\	.	.	.	.	.	2f\	.	.
1G	.	.	1B-y	-tri-	.	1.d	-tri-	.
=105-	=105-	=105-	=105-	=105-	=105-	=105-	=105-	=105-
1D	-tri-	.	1A	.	.	.	.	.
.	.	.	.	.	.	2c/	.	.
2r	.	.	1G	.	.	1B-	.	.
2GG/	.	.	.	.	.	.	.	.
=106-	=106-	=106-	=106-	=106-	=106-	=106-	=106-	=106-
1D	-am	.	1A,<	-a(m)	.	2A/	.	.
.	.	.	.	.	.	2F/	.	.
1C	in	.	1c	in	.	2G/	.	.
.	.	.	.	.	.	1c\	.	.
=107-	=107-	=107-	=107-	=107-	=107-	=107-	=107-	=107-
1GG	.	.	1d	.	.	.	.	.
.	.	.	.	.	.	2B-/	.	.
*custos:C	*	*	*	*	*	*	*	*
2r	.	.	1c	.	.	1c	-am	.
!LO:LB:g=original	!	!	!	!	!	!	!	!
2C/	.	.	.	.	.	.	.	.
=108-	=108-	=108-	=108-	=108-	=108-	=108-	=108-	=108-
1D	ar-	.	1F	ar-	.	2r	.	.
.	.	.	.	.	.	2f\	in	.
1C	-ce	.	1G,<	-ce	.	1e	ar-	.
=109-	=109-	=109-	=109-	=109-	=109-	=109-	=109-	=109-
*	*	*	*lig	*	*	*	*	*
1D	si-	.	1F	ſij-	.	1d	-ce	.
1AA	.	.	1E	.	.	1c	si-	.
*	*	*	*Xlig	*	*	*	*	*
=110-	=110-	=110-	=110-	=110-	=110-	=110-	=110-	=110-
1BB-y	.	.	1D	-de-	.	2B-/	.	.
.	.	.	.	.	.	2A/	.	.
*	*	*	*	*	*	*custos:F	*	*
1C	-de-	.	1E	.	.	1G	.	.
!	!	!	!	!	!	!LO:LB:g=original	!	!
=111-	=111-	=111-	=111-	=111-	=111-	=111-	=111-	=111-
0FFl	-rum	.	0Fl,<	-ru(m)	.	2F/	-de-	.
.	.	.	.	.	.	4E/	.	.
.	.	.	.	.	.	4D/	.	.
.	.	.	.	.	.	1Cl;	-rum	.
=112||	=112||	=112||	=112||	=112||	=112||	=112||	=112||	=112||
1F	A-	.	1F	A-	.	1c	A-	.
1C	.	.	1E	.	.	1c	.	.
=113-	=113-	=113-	=113-	=113-	=113-	=113-	=113-	=113-
2D/	.	.	1D	.	.	2A/	.	.
2BB-y/	.	.	.	.	.	2B-/	.	.
*custos:AA	*	*	*	*	*	*	*	*
2C/	.	.	1E	.	.	2G/	.	.
!LO:LB:g=original	!	!	!	!	!	!	!	!
2.AA/	.	.	.	.	.	2.c/	.	.
=114-	=114-	=114-	=114-	=114-	=114-	=114-	=114-	=114-
*	*	*	*custos:G	*	*	*	*	*
.	.	.	1C	.	.	.	.	.
4BB-y/	.	.	.	.	.	4B-/	.	.
1C	.	.	.	.	.	2A/	.	.
*	*	*	*lig	*	*	*	*	*
*	*	*	*	*	*	*custos:d	*	*
!	!	!	!LO:LB:g=original	!	!	!	!	!
.	.	.	1G	.	.	2G/	.	.
!	!	!	!	!	!	!LO:LB:g=original	!	!
*	*	*	*	*	*	*clefC3	*	*
2GG/	.	.	.	.	.	2.d/	.	.
=115-	=115-	=115-	=115-	=115-	=115-	=115-	=115-	=115-
1D	.	.	1F	.	.	.	.	.
.	.	.	.	.	.	4c/	.	.
.	.	.	.	.	.	4B-/	.	.
.	.	.	.	.	.	4A/	.	.
*	*	*	*Xlig	*	*	*	*	*
1GG	.	.	1G	.	.	2B-/	.	.
.	.	.	.	.	.	1G/	.	.
=116-	=116-	=116-	=116-	=116-	=116-	=116-	=116-	=116-
*lig	*	*	*	*	*	*	*	*
1D	.	.	1A	.	.	.	.	.
.	.	.	.	.	.	2F/	.	.
1GG	.	.	1B-y	.	.	1G	.	.
*Xlig	*	*	*	*	*	*	*	*
=117-	=117-	=117-	=117-	=117-	=117-	=117-	=117-	=117-
2r	.	.	1A	.	.	1c	.	.
2AA/	.	.	.	.	.	.	.	.
2BB-y/	.	.	1G	.	.	2d\	.	.
2C/	.	.	.	.	.	2e\	.	.
=118-	=118-	=118-	=118-	=118-	=118-	=118-	=118-	=118-
2D/	.	.	1F	.	.	2f\	.	.
2BB-y/	.	.	.	.	.	2d\	.	.
1C	.	.	1E	.	.	2c/	.	.
.	.	.	.	.	.	1g\	.	.
=119-	=119-	=119-	=119-	=119-	=119-	=119-	=119-	=119-
0C	.	.	[<1G	.	.	.	.	.
.	.	.	.	.	.	1f	.	.
.	.	.	1G]	.	.	.	.	.
.	.	.	.	.	.	2e\	.	.
=120-	=120-	=120-	=120-	=120-	=120-	=120-	=120-	=120-
0FFl;	-men	.	1F	.	.	0fl;<	-men	.
.	.	.	1Fl	-men	.	.	.	.
==	==	==	==	==	==	==	==	==
*-	*-	*-	*-	*-	*-	*-	*-	*-
!!!system-decoration: [(*)]
!!!RDF**kern: < = below
!!!RDF**kern: l = terminal long
!!!ENC: Filip Voros
!!!END: 2021-12-27
!!!ENC: Andrzej Kubiczek
!!!END: 2022-01-04
!!!YEC: Copyright 2022 Narodowy Instytut Fryderyka Chopina (https://polishscores.org)
!!!YEM: License CC-BY-4.0 (https://creativecommons.org/licenses/by/4.0)
